ix/routing-2_twotone.svg

<svg viewBox="0 0 24 24" fill="none" xmlns="http://www.w3.org/2000/svg" height="1em" width="1em">
  <path opacity="0.4" d="M5.4707 9C7.4037 9 8.9707 7.433 8.9707 5.5C8.9707 3.567 7.4037 2 5.4707 2C3.53771 2 1.9707 3.567 1.9707 5.5C1.9707 7.433 3.53771 9 5.4707 9Z" stroke="#292D32" stroke-width="1.5"/>
  <path opacity="0.4" d="M16.9707 15H19.9707C21.0707 15 21.9707 15.9 21.9707 17V20C21.9707 21.1 21.0707 22 19.9707 22H16.9707C15.8707 22 14.9707 21.1 14.9707 20V17C14.9707 15.9 15.8707 15 16.9707 15Z" stroke="#292D32" stroke-width="1.5"/>
  <path d="M11.9997 5H14.6797C16.5297 5 17.3897 7.29 15.9997 8.51L8.0097 15.5C6.6197 16.71 7.4797 19 9.3197 19H11.9997" stroke="#292D32" stroke-width="1.5" stroke-linecap="round" stroke-linejoin="round"/>
  <path d="M5.48573 5.5H5.49728" stroke="#292D32" stroke-width="2" stroke-linecap="round" stroke-linejoin="round"/>
  <path d="M18.4857 18.5H18.4973" stroke="#292D32" stroke-width="2" stroke-linecap="round" stroke-linejoin="round"/>
</svg>

<svg viewBox="0 0 24 24" fill="none" xmlns="http://www.w3.org/2000/svg" height="1em" width="1em">
  <path opacity=".4" d="M5.47 9a3.5 3.5 0 1 0 0-7 3.5 3.5 0 0 0 0 7Zm11.5 6h3c1.1 0 2 .9 2 2v3c0 1.1-.9 2-2 2h-3c-1.1 0-2-.9-2-2v-3c0-1.1.9-2 2-2Z" stroke="#292D32" stroke-width="1.5"/>
  <path d="M12 5h2.68c1.85 0 2.71 2.29 1.32 3.51L8.01 15.5C6.62 16.71 7.48 19 9.32 19H12" stroke="#292D32" stroke-width="1.5" stroke-linecap="round" stroke-linejoin="round"/>
  <path d="M5.486 5.5h.011m12.989 13h.011" stroke="#292D32" stroke-width="2" stroke-linecap="round" stroke-linejoin="round"/>
</svg>
